X:1
T:Title
%%score { 1 | ( 2 3 ) }
L:1/8
M:4/4
K:G
V:1 treble nm="Grand Piano"
V:2 bass 
V:3 bass 
V:1
 z4 z2[Q:1/4=100] DD | [B,G]2 [B,G]2 [DB]2 [B,D]2 | G2 G4 GA | B3 B A2 G2 |[M:3/4] [Fd]6 | %5
[M:1/4] DD |[M:4/4] E3 E F3 F | A2 G4 BB | [^CB]2 [CE]2 [CF]2 [CG]2 |[M:3/4] [CA]6 | %10
[M:1/4] [Fd]>[Fd] |[M:4/4] [Fd]2 [Fc]2 [Fc]2 F2 | A2 G4 B>B | [^DB]2 [DF]2 G2 E2 |[M:3/4] [^DB]6 | %15
[M:1/4] B,>B, |[M:4/4] C3 D E2 F2 | A2 G4 GA | [G_B]3 [GB] [GA]2 [^CG]2 |[M:3/4] [Fd]6 | %20
[M:1/4] (3DEF |[M:4/4] [B,G]2 [B,G]2 z2 (3BAG | [Fd]2 [Fd]2 z2 D>D | %23
 [B,G]>[B,G] [B,G]>[B,G] B>B A>G |[M:9/8] .A3 z [Fd]2- [Fd] [D,D]2 | %25
[M:4/4] [B,G]2 [B,G]>[B,G] [B,G]2 [D,D]2 | [B,G]2 [B,G]2 z2 GA | B2 B>B B2 G2 | B2 B2 z2 Bc | %29
 d2 d>d d2 c2 |[M:9/8] B2 e- e d2- d[EGc]>[EGc] |[M:4/4] [DGB]3 [B,G] [CFA]3 [CDF] | %32
[M:3/4] [B,DG]6 |] %33
V:2
 z4 z2 D,D, | [G,,D,]2 [G,,D,]2 [G,,G,]2 [G,,G,]2 | [G,B,D]2 [G,B,D]4 [G,B,D][G,CD] | %3
 [G,DG]3 [G,DG][K:bass] [G,CD]2 [G,B,D]2 |[M:3/4] [D,A,]6 |[M:1/4] [B,,G,][B,,G,] | %6
[M:4/4] [C,G,C]3 [C,C] [D,A,D]3 [D,C] | [E,B,F]2 [E,B,E]4 [E,G,E][E,G,E] | %8
 [A,,G,]2 [A,,G,]2 [A,,F,]2 [A,,E,]2 |[M:3/4] [D,F,]6 |[M:1/4] [D,A,]>[D,A,] | %11
[M:4/4] [D,A,]2 [D,A,]2 [D,A,]2 [D,D]2 | [G,CD]2 [G,B,D]4 [G,D]>[G,D] | %13
 [B,,F,]2 [B,,B,]2 [E,B,E]2 [E,G,]2 |[M:3/4] [B,,F,]6 |[M:1/4] B,,>B,, |[M:4/4] C,3 D, E,2 F,2 | %17
 A,2 G,4 G,[G,G] | [^D,G,]3 [D,G,] [D,G,C]2 [D,G,]2 |[M:3/4] [D,A,D]6 |[M:1/4] (3:2:2[D,C]2 [D,C] | %21
[M:4/4] [G,,D,]2 [G,,D,]2 z2[K:treble] (3[G,-DG-][G,CG][K:bass][G,B,] | [D,A,]2 [D,A,]2 z2 D,>D, | %23
 [G,,D,]>[G,,D,] [G,,D,]>[G,,D,] [G,D]>[G,D] [F,A,D]>[E,A,^C] | %24
[M:9/8] .[D,F,D]3 z [D,A,]2- [D,A,] z z |[M:4/4] [G,,D,]2 [G,,D,]>[G,,D,] [G,,D,]2 z2 | %26
 z4 z2[K:treble] .B,2 | [G,DG]2 [G,DG]>[G,DG] [G,DG]2 [G,B,D]2 | [G,DG]2 [G,DG]2 z2 [DG]-[A,DG] | %29
 [B,DG]2 [B,DG]>[B,DG] [B,DG]2 [A,DF]2 |[M:9/8] .[G,G]6 z3[K:bass] |[M:4/4] D,3 D, D,3 D, | %32
[M:3/4] G,,6 |] %33
V:3
 x8 | x8 | x8 | x4[K:bass] x4 |[M:3/4] x6 |[M:1/4] x2 |[M:4/4] x8 | x8 | x8 |[M:3/4] x6 | %10
[M:1/4] x2 |[M:4/4] x8 | x8 | x8 |[M:3/4] x6 |[M:1/4] x2 |[M:4/4] x8 | x8 | x8 |[M:3/4] x6 | %20
[M:1/4] x2 |[M:4/4] x6[K:treble] x4/3[K:bass] x2/3 | x8 | x8 |[M:9/8] x9 |[M:4/4] x8 | %26
 [G,,D,]2 [G,,D,]2 z2[K:treble] [G,D]-[G,CD] | x8 | z4 z2 .G,2 | x8 | %30
[M:9/8] D2 C- C [G,B,G]2- [G,B,G][K:bass]C,>C, |[M:4/4] x8 |[M:3/4] x6 |] %33

